packages/core/src/svgs/tokens/mono/TOWER.svg

<svg width="24" height="24" viewBox="0 0 24 24" fill="none" xmlns="http://www.w3.org/2000/svg">
<path d="M16.7059 2L16.357 3.7647H13.5912L13.1764 2H10.8235L10.5094 3.7647H7.64411L7.34999 2H4.94116L5.52941 7.29412H18.4706L19.0588 2H16.7059ZM5.52941 7.88235L6.38823 17.0577L11.99 22L12 21.9436L12.01 22L17.6124 17.0577L18.4706 7.88235H5.52941ZM7.29411 10.2353H10.8235V18.7648L7.88235 16.1177L7.29411 10.2353ZM13.1764 18.7648V10.2353H16.7059L16.1177 16.1177L13.1764 18.7648Z" fill="white"/>
</svg>

<svg xmlns="http://www.w3.org/2000/svg" width="24" height="24" fill="none" viewBox="0 0 24 24">
    <path fill="#fff" d="m16.706 2-.349 1.765h-2.766L13.176 2h-2.353l-.314 1.765H7.644L7.35 2H4.941l.588 5.294h12.942L19.059 2zM5.529 7.882l.86 9.176L11.99 22l.01-.056.01.056 5.602-4.942.859-9.176zm1.765 2.353h3.53v8.53l-2.942-2.647zm5.882 8.53v-8.53h3.53l-.588 5.883z"/>
</svg>
